packages/tokens/icons/condition/size32Px.svg

<svg viewBox="0 0 32 32" fill="none" xmlns="http://www.w3.org/2000/svg" width="1em" height="1em"><path d="M6.5 4.5L4.5 4.5C3.39543 4.5 2.5 5.39543 2.5 6.5L2.5 25.5C2.5 26.6046 3.39543 27.5 4.5 27.5H7M25.5 4.5L27.5 4.5C28.6046 4.5 29.5 5.39543 29.5 6.5L29.5 25.5C29.5 26.6046 28.6046 27.5 27.5 27.5H25" stroke="currentColor" stroke-linecap="round"/><path d="M9.5 8.5L9.5 24.5M16.5 24.5L16.5 10.5C16.5 9.39543 17.3954 8.5 18.5 8.5L23.5 8.5M22.5 16.5H17" stroke="currentColor" stroke-linecap="round"/></svg>

<svg xmlns="http://www.w3.org/2000/svg" fill="none" viewBox="0 0 32 32" width="1em" height="1em"><path stroke="currentColor" stroke-linecap="round" d="M6.5 4.5h-2a2 2 0 0 0-2 2v19a2 2 0 0 0 2 2H7m18.5-23h2a2 2 0 0 1 2 2v19a2 2 0 0 1-2 2H25M9.5 8.5v16m7 0v-14a2 2 0 0 1 2-2h5m-1 8H17"/></svg>
